src/images/portfolio-resinate/logo-white-outline.svg

<svg height="110" viewBox="0 0 540 110" width="540" xmlns="http://www.w3.org/2000/svg"><g fill="none" fill-rule="evenodd"><path d="m27.6862992 22.08c3.650202 0 6.5083361.5555098 8.5744882 1.6665461s3.0992126 2.4998108 3.0992126 4.1663653c0 .4860784-.0344354.833272-.1033071 1.0415913-.6198456 2.2220726-1.9972597 3.3330922-4.1322835 3.3330922-.3443586 0-.8608889-.0694387-1.5496063-.2083182-2.7548694-.4860784-4.9931672-.729114-6.7149606-.729114-4.9587649 0-8.9532657 1.145739-11.983622 3.4372514-3.0303564 2.2915124-4.5455118 5.3815357-4.5455118 9.2701628v35.6224231c-2.29570734 0-4.01749211 0-5.16535437 0-1.10194777 0-2.82373254 0-5.16535433 0v-51.7670886c0-1.6665545.44765957-2.9511709 1.34299213-3.8538879s2.16944055-1.3540687 3.8223622-1.3540687c3.44358677 0 5.16535437 1.7359682 5.16535437 5.2079566v1.9790235c2.066152-2.4303919 4.614368-4.3399569 7.6447244-5.7287523 3.0303563-1.3887953 6.2672793-2.0831826 9.7108661-2.0831826zm64.8196184 28.8778378c0 1.3146012-.4517469 2.40432-1.3552542 3.2691892s-2.0502494 1.2972973-3.4402606 1.2972973h-39.6151228c.7645062 4.8432675 2.971116 8.7524176 6.6198955 11.7275676 3.6487796 2.97515 8.1141238 4.4627027 13.3961665 4.4627027.606185 0 8.9424043-.0020126 25.008658-.0060379v8.9314433c-16.0075226 0-24.3437419 0-25.008658 0-5.6990461 0-10.8072608-1.2280958-15.3247974-3.6843243s-8.0446373-5.863762-10.5814078-10.2227027c-2.5367706-4.3589407-3.8051368-9.3059183-3.8051368-14.8410811s1.1988667-10.4994375 3.5966361-14.892973c2.3977695-4.3935355 5.7337464-7.8183661 10.008031-10.2745946 4.2742847-2.4562285 9.1218762-3.6843243 14.5429201-3.6843243 5.3515433 0 9.9732614 1.1762045 13.865293 3.5286486 3.8920315 2.3524442 6.8805108 5.6388979 8.9655277 9.8594595 2.0850169 4.2205617 3.1275097 9.0637565 3.1275097 14.5297297zm-25.2799717-19.2778378c4.5665094 0 8.268094 1.3931833 11.1048649 4.1795918 2.836771 2.7864085 4.5664834 6.513174 5.1891892 11.1804082h-34.56c.8302744-4.6672342 2.8194437-8.3939997 5.9675676-11.1804082 3.1481238-2.7864085 7.2475423-4.1795918 12.2983783-4.1795918zm53.9381341-8.64c4.457485 0 8.452016.7264792 11.983715 2.1794595 3.531699 1.4529802 6.326157 3.4594466 8.383457 6.0194594.891497 1.1070326 1.337238 2.2140485 1.337238 3.3210811 0 1.1762221-.582893 2.2486438-1.748696 3.2172973-.754344.5535163-1.714403.8302703-2.880206.8302703-1.782994 0-3.394522-.6572908-4.834632-1.9718919-1.714417-1.5913593-3.531671-2.7156724-5.451818-3.372973s-4.251719-.9859459-6.994787-.9859459c-3.154527 0-5.743257.5362108-7.766269 1.6086486s-3.034503 2.5772876-3.034503 4.5145946c0 1.3837907.342878 2.542698 1.028645 3.4767568.685766.9340587 1.988704 1.7989149 3.908851 2.5945946 1.920147.7956796 4.697461 1.5740502 8.332025 2.3351351 7.474857 1.5221698 12.772326 3.6324189 15.892565 6.3308108s4.680335 6.192411 4.680335 10.4821622c0 3.1827186-.857196 6.0713383-2.571613 8.6659459s-4.234572 4.6356682-7.56054 6.1232432c-3.325969 1.4875751-7.320501 2.2313514-11.983715 2.2313514-1.28991 0-10.877954 0-28.764132 0v-8.9314433c18.152281-.2727315 27.603172-.4090972 28.352674-.4090972 3.908871 0 6.943343-.6572908 9.103508-1.9718919 2.160166-1.3146012 3.240232-3.0789079 3.240232-5.292973 0-2.1448756-1.062922-3.9264794-3.188799-5.3448649-2.125877-1.4183854-5.726099-2.611887-10.800773-3.5805405-13.166722-2.5600128-19.749985-8.0259041-19.749985-16.3978378 0-3.3902873.994347-6.2616099 2.983071-8.6140541s4.594598-4.1167509 7.817702-5.292973 6.651887-1.7643243 10.28645-1.7643243zm33.39592 5.3703839c0-1.6146333.500387-2.9133406 1.501176-3.8961609 1.00079-.9828202 2.260385-1.474223 3.778824-1.474223 1.587459 0 2.864309.4914028 3.830588 1.474223.96628.9828203 1.449412 2.2815276 1.449412 3.8961609v52.2296161c-2.461694 0-4.221694 0-5.28 0-1.012293 0-2.772293 0-5.28 0zm4.8-28.4103839c1.832736 0 3.410902.66181156 4.734545 1.98545455 1.323643 1.32364298 1.985455 2.90180901 1.985455 4.73454545s-.661812 3.4109025-1.985455 4.7345455c-1.323643 1.3236429-2.901809 1.9854545-4.734545 1.9854545s-3.410902-.6618116-4.734545-1.9854545c-1.323643-1.323643-1.985455-2.90180906-1.985455-4.7345455s.661812-3.41090247 1.985455-4.73454545c1.323643-1.32364299 2.901809-1.98545455 4.734545-1.98545455zm48.155322 23.04c4.734526 0 8.988675 1.0415809 12.762573 3.124774 3.773898 2.083193 6.724356 5.1211373 8.851462 9.113924s3.190643 8.8014185 3.190643 14.4260398v30.9352622c-2.493042 0-4.24275 0-5.249123 0s-2.75608 0-5.249123 0v-30.9352622c0-5.6246213-1.492382-9.8777433-4.477193-12.7594937-2.98481-2.8817504-6.947343-4.322604-11.887719-4.322604-2.881886 0-5.506421.5902292-7.873684 1.7707053s-4.219876 2.7775668-5.557895 4.7913201c-1.338018 2.0137532-2.007017 4.2705119-2.007017 6.7703435v34.684991c-2.447299 0-4.197006 0-5.249123 0-1.006373 0-2.756081 0-5.249123 0v-51.7670886c0-1.5971147.497461-2.8817311 1.492398-3.8538879.994936-.9721568 2.247166-1.4582278 3.756725-1.4582278 1.578175 0 2.847558.486071 3.808187 1.4582278s1.440936 2.2567732 1.440936 3.8538879v1.1457504c2.195722-2.2220725 4.803103-3.940681 7.822222-5.155877 3.019118-1.2151959 6.244037-1.8227848 9.674854-1.8227848zm63.736075 0c5.276833 0 10.056749 1.2626901 14.339892 3.7881081s7.675341 5.9848429 10.176696 10.3783784c2.501356 4.3935355 3.752015 9.2886217 3.752015 14.6854054v28.4367567c-2.489916 0-4.23743 0-5.242541 0s-2.752624 0-5.242541 0v-9.1329729c-2.39856 2.97515-5.311053 5.2929646-8.737568 6.9535135-3.426514 1.6605488-7.127094 2.4908108-11.101851 2.4908108-4.934181 0-9.405715-1.245393-13.414737-3.7362162-4.009022-2.4908233-7.161368-5.932951-9.457132-10.3264865-2.295765-4.3935355-3.44363-9.2886217-3.44363-14.6854054s1.233527-10.2918699 3.700617-14.6854054 5.876421-7.8529604 10.228094-10.3783784c4.351674-2.525418 9.165854-3.7881081 14.442686-3.7881081zm.479983 48c3.42537 0 6.525282-.8571648 9.299831-2.57152s4.949626-4.0584385 6.525296-7.03232 2.363493-6.3150748 2.363493-10.02368-.787823-7.0672916-2.363493-10.07616-3.750747-5.3704448-6.525296-7.0848-5.874461-2.57152-9.299831-2.57152c-3.425369 0-6.525282.8571648-9.299831 2.57152s-4.966752 4.0759316-6.576676 7.0848c-1.609923 3.0088684-2.414873 6.3675548-2.414873 10.07616s.80495 7.0497985 2.414873 10.02368c1.609924 2.9738815 3.802127 5.3179648 6.576676 7.03232s5.874462 2.57152 9.299831 2.57152zm63.694285-1.7455756c1.231913 0 2.275602.4846554 3.131098 1.4539806s1.283237 2.2155818 1.283237 3.7388072-.564619 2.769482-1.693873 3.7388072c-1.129254.9693253-2.583575 1.4539806-4.363006 1.4539806h-1.847861c-3.353543 0-6.416171-.8827651-9.187977-2.6483218s-4.944732-4.1715243-6.518844-7.217975-2.361156-6.4736564-2.361156-10.2817198v-25.6523717h-4.722312c-1.437233 0-2.600689-.4154189-3.490405-1.2462691-.889715-.8308502-1.334566-1.8693974-1.334566-3.1156727 0-1.3847503.444851-2.492534 1.334566-3.3233842.889716-.8308502 2.053172-1.2462691 3.490405-1.2462691h4.722312v-14.95522881c0-1.52322536.479071-2.76948197 1.437226-3.73880721.958155-.96932523 2.19005-1.45398058 3.695722-1.45398058s2.737568.48465535 3.695723 1.45398058c.958155.96932524 1.437225 2.21558185 1.437225 3.73880721v14.95522881h8.726012c1.437232 0 2.600689.4154189 3.490404 1.2462691.889716.8308502 1.334567 1.9386339 1.334567 3.3233842 0 1.2462753-.444851 2.2848225-1.334567 3.1156727-.889715.8308502-2.053172 1.2462691-3.490404 1.2462691h-8.726012v25.6523717c0 2.7695006.752825 5.0889226 2.258497 6.9583356 1.505673 1.869413 3.353515 2.8041054 5.543584 2.8041054zm63.934335-18.3365866c0 1.3146012-.448859 2.40432-1.34659 3.2691892-.89773.8648692-2.037141 1.2972973-3.418265 1.2972973h-39.36185c.759618 4.8432675 2.95212 8.7524176 6.577572 11.7275676s8.062247 4.4627027 13.31052 4.4627027c2.071687 0 4.229662-.3805367 6.473989-1.1416216s4.091553-1.6951296 5.541734-2.8021622c.966787-.7610849 2.106198-1.1416216 3.418266-1.1416216s2.347896.3459425 3.107514 1.0378378c1.243012 1.0378431 1.864509 2.2140475 1.864509 3.5286487 0 1.2454116-.552442 2.2832391-1.657341 3.1135135-2.347912 1.8681174-5.265493 3.3902644-8.752833 4.5664865-3.487339 1.1762221-6.819252 1.7643243-9.995838 1.7643243-5.66261 0-10.738166-1.2280958-15.226821-3.6843243-4.488654-2.4562285-7.993205-5.863762-10.513757-10.2227027s-3.780809-9.3059183-3.780809-14.8410811 1.191202-10.4994375 3.573642-14.892973c2.382439-4.3935355 5.697088-7.8183661 9.944046-10.2745946s9.063557-3.6843243 14.449942-3.6843243c5.317329 0 9.909499 1.1762045 13.776647 3.5286486 3.867149 2.3524442 6.836522 5.6388979 8.908209 9.8594595 2.071686 4.2205617 3.107514 9.0637565 3.107514 14.5297297zm-25.894054-19.2778378c-5.050836 0-9.150255 1.3931833-12.298378 4.1795918-3.148124 2.7864085-5.137294 6.513174-5.967568 11.1804082h34.56c-.622706-4.6672342-2.352418-8.3939997-5.189189-11.1804082s-6.538356-4.1795918-11.104865-4.1795918z" fill="#fff" transform="translate(.6 28.8)"/><g transform="translate(429.4)"><path d="m1.53133176 78.0162091c1.42735045-4.3250671 3.82642459-6.0040578 7.19722243-5.0369721l-.42522983 18.6346991-7.53336528 5.4809327c-.49672356-7.6506104-.24293267-14.0101637.76137268-19.0786597z" fill="#fff"/><circle cx="80.4" cy="50.63999" fill="#fff" r="4.8"/><path d="m3.20118761 98.4589471c-.00066174-.0880874-.00118761-.529224-.00118761-.7438662 0-29.256165 30.6652173-49.7150809 70.8739313-49.7150809 2.0384018 0 4.0665239.0654176 6.0807588.1955141l.0024268 4.7898612c-33.6637239 2.2085462-54.6133631 19.3983058-54.6133631 44.7297056.0001578.362327.0004262.6392144.0008658.7111753l.0025593.4189091-.1395084.3950047c-1.670091 4.728705-5.6227204 7.15983-11.3012036 7.15983-5.74166181 0-9.58120336-2.509518-10.82962552-7.360977l-.07344003-.2853932z" fill="#83bc39" stroke="#fff" stroke-width="4.8"/><circle cx="105.6" cy="5.2" fill="#fff" r="4.8"/><path d="m8.13984042 64.7719854c11.63069348-38.0363297 46.68225548-62.3719854 88.82245578-62.3719854 2.7006378 0 5.3876218.12259535 8.0560618.36638809l.003411 4.77977781c-28.9001515 2.6819618-51.295592 17.373856-63.3051038 41.2480765l-.392143.7795578-.8012611.34564c-10.9101422 4.7063089-20.5270103 10.5605499-28.5317749 17.3811293l-6.25436459 5.329125z" fill="#8e42ff" stroke="#fff" stroke-width="4.8"/></g></g></svg>

<?xml version="1.0" encoding="UTF-8"?>
<svg width="540px" height="110px" viewBox="0 0 540 110" version="1.1" xmlns="http://www.w3.org/2000/svg" xmlns:xlink="http://www.w3.org/1999/xlink">
    <!-- Generator: Sketch 50.2 (55047) - http://www.bohemiancoding.com/sketch -->
    <title>logo-white-outline</title>
    <desc>Created with Sketch.</desc>
    <defs></defs>
    <g id="Brand-Page" stroke="none" stroke-width="1" fill="none" fill-rule="evenodd">
        <g id="Resinate-Brand-Page" transform="translate(-467.000000, -277.000000)">
            <g id="Logo-+-Tagline" transform="translate(466.000000, 277.000000)">
                <g id="logo-white-outline" transform="translate(1.000000, 0.000000)">
                    <g id="Resinate-Text-R4-Light" transform="translate(0.600000, 28.800000)" fill="#FFFFFF">
                        <path d="M27.6862992,22.08 C31.3365012,22.08 34.1946353,22.6355098 36.2607874,23.7465461 C38.3269395,24.8575824 39.36,26.2463569 39.36,27.9129114 C39.36,28.3989898 39.3255646,28.7461834 39.2566929,28.9545027 C38.6368473,31.1765753 37.2594332,32.2875949 35.1244094,32.2875949 C34.7800508,32.2875949 34.2635205,32.2181562 33.5748031,32.0792767 C30.8199337,31.5931983 28.5816359,31.3501627 26.8598425,31.3501627 C21.9010776,31.3501627 17.9065768,32.4959017 14.8762205,34.7874141 C11.8458641,37.0789265 10.3307087,40.1689498 10.3307087,44.0575769 L10.3307087,79.68 C8.03500136,79.68 6.31321659,79.68 5.16535433,79.68 C4.06340656,79.68 2.34162179,79.68 0,79.68 L0,27.9129114 C0,26.2463569 0.447659565,24.9617405 1.34299213,24.0590235 C2.23832469,23.1563065 3.51243268,22.7049548 5.16535433,22.7049548 C8.6089411,22.7049548 10.3307087,24.440923 10.3307087,27.9129114 L10.3307087,29.8919349 C12.3968607,27.461543 14.9450767,25.551978 17.9754331,24.1631826 C21.0057894,22.7743873 24.2427124,22.08 27.6862992,22.08 Z M92.5059176,50.9578378 C92.5059176,52.272439 92.0541707,53.3621578 91.1506634,54.227027 C90.2471561,55.0918962 89.100414,55.5243243 87.7104028,55.5243243 L48.09528,55.5243243 C48.8597862,60.3675918 51.066396,64.2767419 54.7151755,67.2518919 C58.3639551,70.2270419 62.8292993,71.7145946 68.111342,71.7145946 C68.717527,71.7145946 77.0537463,71.712582 93.12,71.7085567 L93.12,80.64 C77.1124774,80.64 68.7762581,80.64 68.111342,80.64 C62.4122959,80.64 57.3040812,79.4119042 52.7865446,76.9556757 C48.269008,74.4994472 44.7419073,71.0919137 42.2051368,66.732973 C39.6683662,62.3740323 38.4,57.4270547 38.4,51.8918919 C38.4,46.3567291 39.5988667,41.3924544 41.9966361,36.9989189 C44.3944056,32.6053834 47.7303825,29.1805528 52.0046671,26.7243243 C56.2789518,24.2680958 61.1265433,23.04 66.5475872,23.04 C71.8991305,23.04 76.5208486,24.2162045 80.4128802,26.5686486 C84.3049117,28.9210928 87.293391,32.2075465 89.3784079,36.4281081 C91.4634248,40.6486698 92.5059176,45.4918646 92.5059176,50.9578378 Z M67.2259459,31.68 C71.7924553,31.68 75.4940399,33.0731833 78.3308108,35.8595918 C81.1675818,38.6460003 82.8972942,42.3727658 83.52,47.04 L48.96,47.04 C49.7902744,42.3727658 51.7794437,38.6460003 54.9275676,35.8595918 C58.0756914,33.0731833 62.1751099,31.68 67.2259459,31.68 Z M121.16408,23.04 C125.621565,23.04 129.616096,23.7664792 133.147795,25.2194595 C136.679494,26.6724397 139.473952,28.6789061 141.531252,31.2389189 C142.422749,32.3459515 142.86849,33.4529674 142.86849,34.56 C142.86849,35.7362221 142.285597,36.8086438 141.119794,37.7772973 C140.36545,38.3308136 139.405391,38.6075676 138.239588,38.6075676 C136.456594,38.6075676 134.845066,37.9502768 133.404956,36.6356757 C131.690539,35.0443164 129.873285,33.9200033 127.953138,33.2627027 C126.032991,32.6054021 123.701419,32.2767568 120.958351,32.2767568 C117.803824,32.2767568 115.215094,32.8129676 113.192082,33.8854054 C111.16907,34.9578432 110.157579,36.462693 110.157579,38.4 C110.157579,39.7837907 110.500457,40.942698 111.186224,41.8767568 C111.87199,42.8108155 113.174928,43.6756717 115.095075,44.4713514 C117.015222,45.267031 119.792536,46.0454016 123.4271,46.8064865 C130.901957,48.3286563 136.199426,50.4389054 139.319665,53.1372973 C142.439904,55.8356892 144,59.3297083 144,63.6194595 C144,66.8021781 143.142804,69.6907978 141.428387,72.2854054 C139.71397,74.880013 137.193815,76.9210736 133.867847,78.4086486 C130.541878,79.8962237 126.547346,80.64 121.884132,80.64 C120.594222,80.64 111.006178,80.64 93.12,80.64 L93.12,71.7085567 C111.272281,71.4358252 120.723172,71.2994595 121.472674,71.2994595 C125.381545,71.2994595 128.416017,70.6421687 130.576182,69.3275676 C132.736348,68.0129664 133.816414,66.2486597 133.816414,64.0345946 C133.816414,61.889719 132.753492,60.1081152 130.627615,58.6897297 C128.501738,57.2713443 124.901516,56.0778427 119.826842,55.1091892 C106.66012,52.5491764 100.076857,47.0832851 100.076857,38.7113514 C100.076857,35.3210641 101.071204,32.4497415 103.059928,30.0972973 C105.048652,27.7448531 107.654526,25.9805464 110.87763,24.8043243 C114.100734,23.6281022 117.529517,23.04 121.16408,23.04 Z M154.56,28.4103839 C154.56,26.7957506 155.060387,25.4970433 156.061176,24.514223 C157.061966,23.5314028 158.321561,23.04 159.84,23.04 C161.427459,23.04 162.704309,23.5314028 163.670588,24.514223 C164.636868,25.4970433 165.12,26.7957506 165.12,28.4103839 L165.12,80.64 C162.658306,80.64 160.898306,80.64 159.84,80.64 C158.827707,80.64 157.067707,80.64 154.56,80.64 L154.56,28.4103839 Z M159.36,0 C161.192736,0 162.770902,0.661811564 164.094545,1.98545455 C165.418188,3.30909753 166.08,4.88726356 166.08,6.72 C166.08,8.55273644 165.418188,10.1309025 164.094545,11.4545455 C162.770902,12.7781884 161.192736,13.44 159.36,13.44 C157.527264,13.44 155.949098,12.7781884 154.625455,11.4545455 C153.301812,10.1309025 152.64,8.55273644 152.64,6.72 C152.64,4.88726356 153.301812,3.30909753 154.625455,1.98545455 C155.949098,0.661811564 157.527264,0 159.36,0 Z M207.515322,23.04 C212.249848,23.04 216.503997,24.0815809 220.277895,26.164774 C224.051793,28.247967 227.002251,31.2859113 229.129357,35.278698 C231.256463,39.2714847 232.32,44.0801165 232.32,49.7047378 L232.32,80.64 C229.826958,80.64 228.07725,80.64 227.070877,80.64 C226.064504,80.64 224.314797,80.64 221.821754,80.64 L221.821754,49.7047378 C221.821754,44.0801165 220.329372,39.8269945 217.344561,36.9452441 C214.359751,34.0634937 210.397218,32.6226401 205.456842,32.6226401 C202.574956,32.6226401 199.950421,33.2128693 197.583158,34.3933454 C195.215895,35.5738215 193.363282,37.1709122 192.025263,39.1846655 C190.687245,41.1984187 190.018246,43.4551774 190.018246,45.955009 L190.018246,80.64 C187.570947,80.64 185.82124,80.64 184.769123,80.64 C183.76275,80.64 182.013042,80.64 179.52,80.64 L179.52,28.8729114 C179.52,27.2757967 180.017461,25.9911803 181.012398,25.0190235 C182.007334,24.0468667 183.259564,23.5607957 184.769123,23.5607957 C186.347298,23.5607957 187.616681,24.0468667 188.57731,25.0190235 C189.537939,25.9911803 190.018246,27.2757967 190.018246,28.8729114 L190.018246,30.0186618 C192.213968,27.7965893 194.821349,26.0779808 197.840468,24.8627848 C200.859586,23.6475889 204.084505,23.04 207.515322,23.04 Z M271.251397,23.04 C276.52823,23.04 281.308146,24.3026901 285.591289,26.8281081 C289.874432,29.3535261 293.26663,32.812951 295.767985,37.2064865 C298.269341,41.600022 299.52,46.4951082 299.52,51.8918919 L299.52,80.3286486 C297.030084,80.3286486 295.28257,80.3286486 294.277459,80.3286486 C293.272348,80.3286486 291.524835,80.3286486 289.034918,80.3286486 L289.034918,71.1956757 C286.636358,74.1708257 283.723865,76.4886403 280.29735,78.1491892 C276.870836,79.809738 273.170256,80.64 269.195499,80.64 C264.261318,80.64 259.789784,79.394607 255.780762,76.9037838 C251.77174,74.4129605 248.619394,70.9708328 246.32363,66.5772973 C244.027865,62.1837618 242.88,57.2886756 242.88,51.8918919 C242.88,46.4951082 244.113527,41.600022 246.580617,37.2064865 C249.047707,32.812951 252.457038,29.3535261 256.808711,26.8281081 C261.160385,24.3026901 265.974565,23.04 271.251397,23.04 Z M271.73138,71.04 C275.15675,71.04 278.256662,70.1828352 281.031211,68.46848 C283.80576,66.7541248 285.980837,64.4100415 287.556507,61.43616 C289.132177,58.4622785 289.92,55.1210852 289.92,51.41248 C289.92,47.7038748 289.132177,44.3451884 287.556507,41.33632 C285.980837,38.3274516 283.80576,35.9658752 281.031211,34.25152 C278.256662,32.5371648 275.15675,31.68 271.73138,31.68 C268.306011,31.68 265.206098,32.5371648 262.431549,34.25152 C259.657,35.9658752 257.464797,38.3274516 255.854873,41.33632 C254.24495,44.3451884 253.44,47.7038748 253.44,51.41248 C253.44,55.1210852 254.24495,58.4622785 255.854873,61.43616 C257.464797,64.4100415 259.657,66.7541248 262.431549,68.46848 C265.206098,70.1828352 268.306011,71.04 271.73138,71.04 Z M335.425665,69.2944244 C336.657578,69.2944244 337.701267,69.7790798 338.556763,70.748405 C339.412259,71.7177302 339.84,72.9639868 339.84,74.4872122 C339.84,76.0104376 339.275381,77.2566942 338.146127,78.2260194 C337.016873,79.1953447 335.562552,79.68 333.783121,79.68 L331.93526,79.68 C328.581717,79.68 325.519089,78.7972349 322.747283,77.0316782 C319.975477,75.2661215 317.802551,72.8601539 316.228439,69.8137032 C314.654327,66.7672525 313.867283,63.3400468 313.867283,59.5319834 L313.867283,33.8796117 L309.144971,33.8796117 C307.707738,33.8796117 306.544282,33.4641928 305.654566,32.6333426 C304.764851,31.8024924 304.32,30.7639452 304.32,29.5176699 C304.32,28.1329196 304.764851,27.0251359 305.654566,26.1942857 C306.544282,25.3634355 307.707738,24.9480166 309.144971,24.9480166 L313.867283,24.9480166 L313.867283,9.99278779 C313.867283,8.46956243 314.346354,7.22330582 315.304509,6.25398058 C316.262664,5.28465535 317.494559,4.8 319.000231,4.8 C320.505903,4.8 321.737799,5.28465535 322.695954,6.25398058 C323.654109,7.22330582 324.133179,8.46956243 324.133179,9.99278779 L324.133179,24.9480166 L332.859191,24.9480166 C334.296423,24.9480166 335.45988,25.3634355 336.349595,26.1942857 C337.239311,27.0251359 337.684162,28.1329196 337.684162,29.5176699 C337.684162,30.7639452 337.239311,31.8024924 336.349595,32.6333426 C335.45988,33.4641928 334.296423,33.8796117 332.859191,33.8796117 L324.133179,33.8796117 L324.133179,59.5319834 C324.133179,62.301484 324.886004,64.620906 326.391676,66.490319 C327.897349,68.359732 329.745191,69.2944244 331.93526,69.2944244 L335.425665,69.2944244 Z M399.36,50.9578378 C399.36,52.272439 398.911141,53.3621578 398.01341,54.227027 C397.11568,55.0918962 395.976269,55.5243243 394.595145,55.5243243 L355.233295,55.5243243 C355.992913,60.3675918 358.185415,64.2767419 361.810867,67.2518919 C365.436319,70.2270419 369.873114,71.7145946 375.121387,71.7145946 C377.193074,71.7145946 379.351049,71.3340579 381.595376,70.572973 C383.839703,69.8118881 385.686929,68.8778434 387.13711,67.7708108 C388.103897,67.0097259 389.243308,66.6291892 390.555376,66.6291892 C391.867444,66.6291892 392.903272,66.9751317 393.66289,67.667027 C394.905902,68.7048701 395.527399,69.8810745 395.527399,71.1956757 C395.527399,72.4410873 394.974957,73.4789148 393.870058,74.3091892 C391.522146,76.1773066 388.604565,77.6994536 385.117225,78.8756757 C381.629886,80.0518978 378.297973,80.64 375.121387,80.64 C369.458777,80.64 364.383221,79.4119042 359.894566,76.9556757 C355.405912,74.4994472 351.901361,71.0919137 349.380809,66.732973 C346.860257,62.3740323 345.6,57.4270547 345.6,51.8918919 C345.6,46.3567291 346.791202,41.3924544 349.173642,36.9989189 C351.556081,32.6053834 354.87073,29.1805528 359.117688,26.7243243 C363.364646,24.2680958 368.181245,23.04 373.56763,23.04 C378.884959,23.04 383.477129,24.2162045 387.344277,26.5686486 C391.211426,28.9210928 394.180799,32.2075465 396.252486,36.4281081 C398.324172,40.6486698 399.36,45.4918646 399.36,50.9578378 Z M373.465946,31.68 C368.41511,31.68 364.315691,33.0731833 361.167568,35.8595918 C358.019444,38.6460003 356.030274,42.3727658 355.2,47.04 L389.76,47.04 C389.137294,42.3727658 387.407582,38.6460003 384.570811,35.8595918 C381.73404,33.0731833 378.032455,31.68 373.465946,31.68 Z" id="resinate"></path>
                    </g>
                    <g id="Resinate-Leaf-R4-Outline" transform="translate(429.400000, 0.000000)">
                        <g id="Resinate-Leaf-Outline">
                            <path d="M1.53133176,78.0162091 C2.95868221,73.691142 5.35775635,72.0121513 8.72855419,72.979237 L8.30332436,91.6139361 L0.769959077,97.0948688 C0.273235518,89.4442584 0.527026411,83.0847051 1.53133176,78.0162091 Z" id="Rectangle" fill="#FFFFFF"></path>
                            <circle id="Oval" fill="#FFFFFF" cx="80.4" cy="50.6399902" r="4.8"></circle>
                            <path d="M3.20118761,98.4589471 C3.20052587,98.3708597 3.2,97.9297231 3.2,97.7150809 C3.2,68.4589159 33.8652173,48 74.0739313,48 C76.1123331,48 78.1404552,48.0654176 80.1546901,48.1955141 L80.1571169,52.9853753 C46.493393,55.1939215 25.5437538,72.3836811 25.5437538,97.7150809 C25.5439116,98.0774079 25.54418,98.3542953 25.5446196,98.4262562 L25.5471789,98.8451653 L25.4076705,99.24017 C23.7375795,103.968875 19.7849501,106.4 14.1064669,106.4 C8.36480509,106.4 4.52526354,103.890482 3.27684138,99.039023 L3.20340135,98.7536298 L3.20118761,98.4589471 Z" id="Combined-Shape" stroke="#FFFFFF" stroke-width="4.8" fill="#83BC39"></path>
                            <circle id="Oval" fill="#FFFFFF" cx="105.6" cy="5.2" r="4.8"></circle>
                            <path d="M8.13984042,64.7719854 C19.7705339,26.7356557 54.8220959,2.4 96.9622962,2.4 C99.662934,2.4 102.349918,2.52259535 105.018358,2.76638809 L105.021769,7.5461659 C76.1216175,10.2281277 53.726177,24.9200219 41.7166652,48.7942424 L41.3245222,49.5738002 L40.5232611,49.9194402 C29.6131189,54.6257491 19.9962508,60.4799901 11.9914862,67.3005695 L5.73712161,72.6296945 L8.13984042,64.7719854 Z" id="Combined-Shape" stroke="#FFFFFF" stroke-width="4.8" fill="#8E42FF"></path>
                        </g>
                    </g>
                </g>
            </g>
        </g>
    </g>
</svg>
